X: 8208
T: Coomb's Cove
R: polka
M: 2/4
K: Dmajor
|:fg/f/ ef|Ac BA|ef ge|Bc BA|
fg/f/ ef|Ac BA|ef ge|Bc d2:|
|:fg/f/ ef|ge c2|ef/e/ de|fA de|
fg/f/ ef|ge c2|ef ge|Bc d2:|

